!!!OTL: Surrexit Christus hodie
**kern
*staff1
=1-
*clefF3
*k[]
*M3/1
1r
1r
1F
=2
0F
1F
=3
0C
1C
=4
0F
1G
=5
0A
1A
=6
0G
1F
=7
0c
1G
=8
1A
1F
1G
=9
!!linebreak:original
!LO:TX:Y=-32:t=P
0D
1D
=10
0D
1D
=11
0F
1E
=12
1F
0C
=13
!LO:TX:Y=-37:t=P
0F
1D
=14
0C
1E
=15
1F
0C
=16
0.F
==
*-
!!title: @{OTL}, @{GTL}, ed. @{ENC}
!!!pag:
!!!GTL: Hymnbook D
!!!EFL: 
!!!YEM: Creative Commons CC/BY/NC/SA 4.0
!!!ENC: Marcin Konik
!!!END: 2015-0m-dd
!!!EED: Marcin Konik
!!!EEV: 
!!!ONB: Encoded in vim by Marcin Konik
!!!CharacterEncoding: utf-8
!!!RDF**kern: l=long note in original notation
!!!RDF**kern: i=editorial accidental
!!muse2ps: z14jc180F
!!!COM: Anonim
!!!CDT: [?]
!!!TXO: Polish
!!!ODT: 
!!!GTL: Hymnbook D
!!!ARL: Opactwo św. Wojciecha, Staniątki 
!!!voices:	1
